www/assets/images/test_icons/flags/MZ.svg

<svg fill="none" height="15" viewBox="0 0 21 15" width="21" xmlns="http://www.w3.org/2000/svg" xmlns:xlink="http://www.w3.org/1999/xlink"><mask id="a" height="15" maskUnits="userSpaceOnUse" width="21" x="0" y="0"><path d="m19 0h-17c-1.10457 0-2 .89543-2 2v11c0 1.1046.89543 2 2 2h17c1.1046 0 2-.8954 2-2v-11c0-1.10457-.8954-2-2-2z" fill="#fff"/></mask><g mask="url(#a)"><path d="m19 0h-17c-1.10457 0-2 .89543-2 2v11c0 1.1046.89543 2 2 2h17c1.1046 0 2-.8954 2-2v-11c0-1.10457-.8954-2-2-2z" fill="#000"/><g clip-rule="evenodd" fill-rule="evenodd"><path d="m0 10h21v5h-21z" fill="#fde300"/><path d="m0 0h21v5h-21z" fill="#007168"/><path d="m0 4h21v1h-21zm0 6h21v1h-21z" fill="#fff"/><path d="m0 0v15.033l10-7.533z" fill="#d4062e"/><path d="m3.378 8.75-1.47.773.28-1.637-1.188-1.16 1.643-.237.735-1.489.734 1.49 1.643.237-1.19 1.16.282 1.636" fill="#fde300"/><path d="m2.28 6.384.354-.354 2.12 2.122-.352.353-2.122-2.12z" fill="#000"/><path d="m4.755 6.384-.353-.354-2.122 2.122.354.353 2.12-2.12z" fill="#000"/></g><path d="m19 .5h-17c-.82843 0-1.5.67157-1.5 1.5v11c0 .8284.67157 1.5 1.5 1.5h17c.8284 0 1.5-.6716 1.5-1.5v-11c0-.82843-.6716-1.5-1.5-1.5z" stroke="#000" stroke-opacity=".1"/></g></svg>

<svg width="21" height="15" viewBox="0 0 21 15" fill="none" xmlns="http://www.w3.org/2000/svg">
<mask id="mask0_3_85" style="mask-type:alpha" maskUnits="userSpaceOnUse" x="0" y="0" width="21" height="15">
<path d="M19 0H2C0.89543 0 0 0.89543 0 2V13C0 14.1046 0.89543 15 2 15H19C20.1046 15 21 14.1046 21 13V2C21 0.89543 20.1046 0 19 0Z" fill="white"/>
</mask>
<g mask="url(#mask0_3_85)">
<path d="M19 0H2C0.89543 0 0 0.89543 0 2V13C0 14.1046 0.89543 15 2 15H19C20.1046 15 21 14.1046 21 13V2C21 0.89543 20.1046 0 19 0Z" fill="black"/>
<path fill-rule="evenodd" clip-rule="evenodd" d="M0 10H21V15H0V10Z" fill="#FDE300"/>
<path fill-rule="evenodd" clip-rule="evenodd" d="M0 0H21V5H0V0Z" fill="#007168"/>
<path fill-rule="evenodd" clip-rule="evenodd" d="M0 4H21V5H0V4ZM0 10H21V11H0V10Z" fill="white"/>
<path fill-rule="evenodd" clip-rule="evenodd" d="M0 0V15.033L10 7.5L0 0Z" fill="#D4062E"/>
<path fill-rule="evenodd" clip-rule="evenodd" d="M3.378 8.75L1.908 9.523L2.188 7.886L1 6.726L2.643 6.489L3.378 5L4.112 6.49L5.755 6.727L4.565 7.887L4.847 9.523" fill="#FDE300"/>
<path fill-rule="evenodd" clip-rule="evenodd" d="M2.28 6.384L2.634 6.03L4.754 8.152L4.402 8.505L2.28 6.385V6.384Z" fill="black"/>
<path fill-rule="evenodd" clip-rule="evenodd" d="M4.755 6.384L4.402 6.03L2.28 8.152L2.634 8.505L4.754 6.385L4.755 6.384Z" fill="black"/>
<path d="M19 0.5H2C1.17157 0.5 0.5 1.17157 0.5 2V13C0.5 13.8284 1.17157 14.5 2 14.5H19C19.8284 14.5 20.5 13.8284 20.5 13V2C20.5 1.17157 19.8284 0.5 19 0.5Z" stroke="black" stroke-opacity="0.1"/>
</g>
</svg>
